X: 2
T: Sonny Murray's
R: hornpipe
M: 4/4
L: 1/8
K: Dmaj
FG|A2AF DEFG|AFed =c2 (3AB^c|d2de fdAF|G2GA G2FG|ABAF DEFG|AGAB =c2 (3AB^c|d2de fdAG|F2D2 D2:||:de|f2fd edcA|defd g2 (3efg|a2ab agef|dcAB G2FG|A2AF DEFG|AFed =c2 (3AB^c|d2de fdAG|F2D2 D2:|


Tune 309	Setting 13076

